assets/logos/ubuntu.svg

<svg class="typst-doc" viewBox="0 0 102.4264566929134 125.6584566929134" width="102.4264566929134pt" height="125.6584566929134pt" xmlns="http://www.w3.org/2000/svg" xmlns:xlink="http://www.w3.org/1999/xlink" xmlns:h5="http://www.w3.org/1999/xhtml">
    <path class="typst-shape" fill="#ffffff" fill-rule="nonzero" d="M 0 0v 125.658455 h 102.42646 v -125.658455 Z "/>
    <g>
        <g class="typst-group" transform="matrix(1 0 0 1 14.173228346456693 14.173228346456693)">
            <g>
                <path class="typst-shape" fill="#000000" fill-rule="nonzero" d="M 0 0m 0 5 c 0 -2.7614238 2.2385762 -5 5 -5 h 64.08 c 2.7614212 0 5 2.2385762 5 5 v 87.312 c 0 2.7614288 -2.2385788 5 -5 5 h -64.08 c -2.7614238 0 -5 -2.2385712 -5 -5 Z "/>
                <g class="typst-group" transform="matrix(1 0 0 1 8 19.616)">
                    <g/>
                </g>
                <g class="typst-group" transform="matrix(1 0 0 1 8 19.616)">
                    <g/>
                </g>
                <g class="typst-group" transform="matrix(1 0 0 1 8 8)">
                    <g>
                        <g class="typst-text" transform="matrix(1 0 0 -1 0 8.976000000000003)">
                            <use xlink:href="#gB3CB5C71C376FEAC35A5CE3E9D70B056" x="47.52" y="0" fill="#ffff00" fill-rule="nonzero"/>
                        </g>
                    </g>
                </g>
                <g class="typst-group" transform="matrix(1 0 0 1 66.08000000000001 8)">
                    <g/>
                </g>
                <g class="typst-group" transform="matrix(1 0 0 1 8 31.232000000000003)">
                    <g/>
                </g>
                <g class="typst-group" transform="matrix(1 0 0 1 8 31.232000000000003)">
                    <g/>
                </g>
                <g class="typst-group" transform="matrix(1 0 0 1 8 31.232000000000003)">
                    <g/>
                </g>
                <g class="typst-group" transform="matrix(1 0 0 1 8 19.616)">
                    <g>
                        <g class="typst-text" transform="matrix(1 0 0 -1 0 8.976000000000003)">
                            <use xlink:href="#g631A384CAFCBE62688CFE764B7FFA88A" x="36.96" y="0" fill="#ffff00" fill-rule="nonzero"/>
                            <use xlink:href="#g1DC2B9F958B9FBE8E8310F083FFEC1D6" x="42.24" y="0" fill="#ffff00" fill-rule="nonzero"/>
                            <use xlink:href="#gB3CB5C71C376FEAC35A5CE3E9D70B056" x="47.52" y="0" fill="#ffff00" fill-rule="nonzero"/>
                            <use xlink:href="#gCCDBD5FC51A6BA89CB64A6B230E95E13" x="52.800000000000004" y="0" fill="#ffff00" fill-rule="nonzero"/>
                        </g>
                    </g>
                </g>
                <g class="typst-group" transform="matrix(1 0 0 1 66.08000000000001 19.616)">
                    <g/>
                </g>
                <g class="typst-group" transform="matrix(1 0 0 1 8 42.848000000000006)">
                    <g/>
                </g>
                <g class="typst-group" transform="matrix(1 0 0 1 8 42.848000000000006)">
                    <g/>
                </g>
                <g class="typst-group" transform="matrix(1 0 0 1 8 42.848000000000006)">
                    <g/>
                </g>
                <g class="typst-group" transform="matrix(1 0 0 1 8 31.232000000000003)">
                    <g>
                        <g class="typst-text" transform="matrix(1 0 0 -1 0 8.976000000000003)">
                            <use xlink:href="#gB3CB5C71C376FEAC35A5CE3E9D70B056" x="5.28" y="0" fill="#ffff00" fill-rule="nonzero"/>
                            <use xlink:href="#g4EE50823DE1072B888352BF5ED93E90B" x="10.56" y="0" fill="#ffff00" fill-rule="nonzero"/>
                            <use xlink:href="#g631A384CAFCBE62688CFE764B7FFA88A" x="36.96" y="0" fill="#ffff00" fill-rule="nonzero"/>
                            <use xlink:href="#g553CA0615203AE7EF2B51E16776E3FE0" x="52.800000000000004" y="0" fill="#ffff00" fill-rule="nonzero"/>
                        </g>
                    </g>
                </g>
                <g class="typst-group" transform="matrix(1 0 0 1 66.08000000000001 31.232000000000003)">
                    <g/>
                </g>
                <g class="typst-group" transform="matrix(1 0 0 1 8 54.464000000000006)">
                    <g/>
                </g>
                <g class="typst-group" transform="matrix(1 0 0 1 8 54.464000000000006)">
                    <g/>
                </g>
                <g class="typst-group" transform="matrix(1 0 0 1 8 54.464000000000006)">
                    <g/>
                </g>
                <g class="typst-group" transform="matrix(1 0 0 1 8 42.848000000000006)">
                    <g>
                        <g class="typst-text" transform="matrix(1 0 0 -1 0 8.976000000000003)">
                            <use xlink:href="#g1DC2B9F958B9FBE8E8310F083FFEC1D6" x="0" y="0" fill="#ffff00" fill-rule="nonzero"/>
                            <use xlink:href="#gB3CB5C71C376FEAC35A5CE3E9D70B056" x="5.28" y="0" fill="#ffff00" fill-rule="nonzero"/>
                            <use xlink:href="#gCCDBD5FC51A6BA89CB64A6B230E95E13" x="10.56" y="0" fill="#ffff00" fill-rule="nonzero"/>
                            <use xlink:href="#gD7BC2388059FC0B3DF9C32F4768A0A47" x="21.12" y="0" fill="#ffff00" fill-rule="nonzero"/>
                            <use xlink:href="#gD7BC2388059FC0B3DF9C32F4768A0A47" x="42.24" y="0" fill="#ffff00" fill-rule="nonzero"/>
                        </g>
                    </g>
                </g>
                <g class="typst-group" transform="matrix(1 0 0 1 66.08000000000001 42.848000000000006)">
                    <g/>
                </g>
                <g class="typst-group" transform="matrix(1 0 0 1 8 66.08)">
                    <g/>
                </g>
                <g class="typst-group" transform="matrix(1 0 0 1 8 66.08)">
                    <g/>
                </g>
                <g class="typst-group" transform="matrix(1 0 0 1 8 54.464000000000006)">
                    <g>
                        <g class="typst-text" transform="matrix(1 0 0 -1 0 8.976000000000003)"/>
                    </g>
                </g>
                <g class="typst-group" transform="matrix(1 0 0 1 13.28 54.464000000000006)">
                    <g>
                        <g class="typst-text" transform="matrix(1 0 0 -1 0 8.976000000000003)">
                            <use xlink:href="#g553CA0615203AE7EF2B51E16776E3FE0" x="5.28" y="0" fill="#ffff00" fill-rule="nonzero"/>
                            <use xlink:href="#g631A384CAFCBE62688CFE764B7FFA88A" x="31.680000000000003" y="0" fill="#ffff00" fill-rule="nonzero"/>
                            <use xlink:href="#gB3CB5C71C376FEAC35A5CE3E9D70B056" x="42.24" y="0" fill="#ffff00" fill-rule="nonzero"/>
                            <use xlink:href="#g4EE50823DE1072B888352BF5ED93E90B" x="47.52" y="0" fill="#ffff00" fill-rule="nonzero"/>
                        </g>
                    </g>
                </g>
                <g class="typst-group" transform="matrix(1 0 0 1 66.08000000000001 54.464000000000006)">
                    <g/>
                </g>
                <g class="typst-group" transform="matrix(1 0 0 1 8 77.69600000000001)">
                    <g/>
                </g>
                <g class="typst-group" transform="matrix(1 0 0 1 8 77.69600000000001)">
                    <g/>
                </g>
                <g class="typst-group" transform="matrix(1 0 0 1 8 66.08)">
                    <g>
                        <g class="typst-text" transform="matrix(1 0 0 -1 0 8.976000000000003)"/>
                    </g>
                </g>
                <g class="typst-group" transform="matrix(1 0 0 1 29.12 66.08)">
                    <g>
                        <g class="typst-text" transform="matrix(1 0 0 -1 0 8.976000000000003)">
                            <use xlink:href="#g631A384CAFCBE62688CFE764B7FFA88A" x="15.84" y="0" fill="#ffff00" fill-rule="nonzero"/>
                            <use xlink:href="#g1DC2B9F958B9FBE8E8310F083FFEC1D6" x="21.12" y="0" fill="#ffff00" fill-rule="nonzero"/>
                            <use xlink:href="#gB3CB5C71C376FEAC35A5CE3E9D70B056" x="26.400000000000002" y="0" fill="#ffff00" fill-rule="nonzero"/>
                            <use xlink:href="#gCCDBD5FC51A6BA89CB64A6B230E95E13" x="31.680000000000003" y="0" fill="#ffff00" fill-rule="nonzero"/>
                        </g>
                    </g>
                </g>
                <g class="typst-group" transform="matrix(1 0 0 1 66.08 66.08)">
                    <g/>
                </g>
                <g class="typst-group" transform="matrix(1 0 0 1 8 77.69600000000001)">
                    <g/>
                </g>
                <g class="typst-group" transform="matrix(1 0 0 1 8 89.31200000000001)">
                    <g/>
                </g>
            </g>
        </g>
    </g>
    <defs id="glyph">
        <symbol id="gB3CB5C71C376FEAC35A5CE3E9D70B056" overflow="visible">
            <path d="M 0 0m 0.528 -1.2144 v 0.9944 h 4.224 v -0.9944 h -4.224 Z "/>
        </symbol>
        <symbol id="g631A384CAFCBE62688CFE764B7FFA88A" overflow="visible">
            <path d="M 0 0m 0.132 2.3936 v 1.0208001 h 3.916 v -1.0208001 h -3.916 Z m -9.46 0 v 1.0208001 h 3.916 v -1.0208001 h -3.916 Z m 4.752 0 v 1.0208001 h 3.8720002 v -1.0208001 h -3.8720002 Z "/>
        </symbol>
        <symbol id="g1DC2B9F958B9FBE8E8310F083FFEC1D6" overflow="visible">
            <path d="M 0 0m 4.268 -1.056 q -1.3376002 0.30799997 -2.068 1.21 q -0.7304001 0.902 -0.7304001 2.2308 v 1.5752001 q 0 1.3199997 0.7304001 2.2175999 q 0.73039985 0.8976002 2.068 1.2144003 v -1.0912004 q -0.78320026 -0.18479967 -1.2364001 -0.81399965 q -0.4532001 -0.6292 -0.4532001 -1.5268002 v -1.5752001 q 0 -0.89759994 0.4532001 -1.5267999 q 0.45319986 -0.6292 1.2364001 -0.814 v -1.1 Z "/>
        </symbol>
        <symbol id="gCCDBD5FC51A6BA89CB64A6B230E95E13" overflow="visible">
            <path d="M 0 0m 1.012 -1.056 v 1.1 q 0.7832 0.1848 1.2364 0.814 q 0.4532001 0.62920004 0.4532001 1.5267999 v 1.5752001 q 0 0.8976002 -0.4532001 1.5268002 q -0.45319998 0.6292 -1.2364 0.81399965 v 1.0912004 q 1.3376001 -0.31680012 2.0679998 -1.2144003 q 0.7304001 -0.8976002 0.7304001 -2.2175999 v -1.5752001 q 0 -1.3288 -0.7304001 -2.2308 q -0.73039985 -0.902 -2.0679998 -1.21 Z "/>
        </symbol>
        <symbol id="g4EE50823DE1072B888352BF5ED93E90B" overflow="visible">
            <path d="M 0 0m 0.528 -0.968 l 3.08 8.272 h 1.1439998 l -3.08 -8.272 h -1.1439999 Z "/>
        </symbol>
        <symbol id="g553CA0615203AE7EF2B51E16776E3FE0" overflow="visible">
            <path d="M 0 0m 3.5992 -0.968 l -3.0712 8.272 h 1.1439999 l 3.0712 -8.272 h -1.1439998 Z "/>
        </symbol>
        <symbol id="gD7BC2388059FC0B3DF9C32F4768A0A47" overflow="visible">
            <path d="M 0 0m 2.0856 -0.968 v 8.272 h 1.1088002 v -8.272 h -1.1088002 Z "/>
        </symbol>
    </defs>
</svg>

<svg class="typst-doc" viewBox="0 0 102.4265 125.6585" width="102.4265" height="125.6585" xmlns="http://www.w3.org/2000/svg" xmlns:xlink="http://www.w3.org/1999/xlink" xmlns:h5="http://www.w3.org/1999/xhtml">
    <g>
        <g transform="translate(14.17325 14.17325)">
            <g class="typst-group">
                <g>
                    <g transform="translate(-0 -0)">
                        <path class="typst-shape" fill="#000000" d="M 0 5 C 0 2.2385762 2.2385762 0 5 0 L 69.08 0 C 71.84142 0 74.08 2.2385762 74.08 5 L 74.08 92.312 C 74.08 95.073425 71.84142 97.312 69.08 97.312 L 5 97.312 C 2.2385762 97.312 0 95.073425 0 92.312 Z "/>
                    </g>
                    <g transform="translate(8 19.616)">
                        <g class="typst-group">
                            <g/>
                        </g>
                    </g>
                    <g transform="translate(8 19.616)">
                        <g class="typst-group">
                            <g/>
                        </g>
                    </g>
                    <g transform="translate(8 8)">
                        <g class="typst-group">
                            <g>
                                <g transform="translate(0 8.976)">
                                    <g class="typst-text" transform="scale(1, -1)">
                                        <use xlink:href="#g45C544E5050795A0DB9B642A0F86EEF6" x="47.52" fill="#ffff00"/>
                                    </g>
                                </g>
                            </g>
                        </g>
                    </g>
                    <g transform="translate(66.07999999999998 8)">
                        <g class="typst-group">
                            <g/>
                        </g>
                    </g>
                    <g transform="translate(8 31.232000000000003)">
                        <g class="typst-group">
                            <g/>
                        </g>
                    </g>
                    <g transform="translate(8 31.232000000000003)">
                        <g class="typst-group">
                            <g/>
                        </g>
                    </g>
                    <g transform="translate(8 31.232000000000003)">
                        <g class="typst-group">
                            <g/>
                        </g>
                    </g>
                    <g transform="translate(8 19.616)">
                        <g class="typst-group">
                            <g>
                                <g transform="translate(0 8.976)">
                                    <g class="typst-text" transform="scale(1, -1)">
                                        <use xlink:href="#g69D562AAFC7AB90A48642CD56D172AEA" x="36.96" fill="#ffff00"/>
                                        <use xlink:href="#g9F62A776F256F459E0FDB0ABC6A60C79" x="42.24" fill="#ffff00"/>
                                        <use xlink:href="#g45C544E5050795A0DB9B642A0F86EEF6" x="47.52" fill="#ffff00"/>
                                        <use xlink:href="#gD45F75A0548D7919D1CC2C8CF00925DA" x="52.800000000000004" fill="#ffff00"/>
                                    </g>
                                </g>
                            </g>
                        </g>
                    </g>
                    <g transform="translate(66.07999999999998 19.616)">
                        <g class="typst-group">
                            <g/>
                        </g>
                    </g>
                    <g transform="translate(8 42.848000000000006)">
                        <g class="typst-group">
                            <g/>
                        </g>
                    </g>
                    <g transform="translate(8 42.848000000000006)">
                        <g class="typst-group">
                            <g/>
                        </g>
                    </g>
                    <g transform="translate(8 42.848000000000006)">
                        <g class="typst-group">
                            <g/>
                        </g>
                    </g>
                    <g transform="translate(8 31.232000000000003)">
                        <g class="typst-group">
                            <g>
                                <g transform="translate(0 8.976)">
                                    <g class="typst-text" transform="scale(1, -1)">
                                        <use xlink:href="#g45C544E5050795A0DB9B642A0F86EEF6" x="5.28" fill="#ffff00"/>
                                        <use xlink:href="#gEA462781DB655E9FC41D13FE877043C1" x="10.56" fill="#ffff00"/>
                                        <use xlink:href="#g69D562AAFC7AB90A48642CD56D172AEA" x="36.96" fill="#ffff00"/>
                                        <use xlink:href="#g40C668FB4E37D9F21E1980C2683B7C07" x="52.800000000000004" fill="#ffff00"/>
                                    </g>
                                </g>
                            </g>
                        </g>
                    </g>
                    <g transform="translate(66.07999999999998 31.232000000000003)">
                        <g class="typst-group">
                            <g/>
                        </g>
                    </g>
                    <g transform="translate(8 54.464000000000006)">
                        <g class="typst-group">
                            <g/>
                        </g>
                    </g>
                    <g transform="translate(8 54.464000000000006)">
                        <g class="typst-group">
                            <g/>
                        </g>
                    </g>
                    <g transform="translate(8 54.464000000000006)">
                        <g class="typst-group">
                            <g/>
                        </g>
                    </g>
                    <g transform="translate(8 42.848000000000006)">
                        <g class="typst-group">
                            <g>
                                <g transform="translate(0 8.976)">
                                    <g class="typst-text" transform="scale(1, -1)">
                                        <use xlink:href="#g9F62A776F256F459E0FDB0ABC6A60C79" x="0" fill="#ffff00"/>
                                        <use xlink:href="#g45C544E5050795A0DB9B642A0F86EEF6" x="5.28" fill="#ffff00"/>
                                        <use xlink:href="#gD45F75A0548D7919D1CC2C8CF00925DA" x="10.56" fill="#ffff00"/>
                                        <use xlink:href="#g9E2918126B06D8427DFD8C44236F351E" x="21.12" fill="#ffff00"/>
                                        <use xlink:href="#g9E2918126B06D8427DFD8C44236F351E" x="42.24" fill="#ffff00"/>
                                    </g>
                                </g>
                            </g>
                        </g>
                    </g>
                    <g transform="translate(66.07999999999998 42.848000000000006)">
                        <g class="typst-group">
                            <g/>
                        </g>
                    </g>
                    <g transform="translate(8 66.08000000000001)">
                        <g class="typst-group">
                            <g/>
                        </g>
                    </g>
                    <g transform="translate(8 66.08000000000001)">
                        <g class="typst-group">
                            <g/>
                        </g>
                    </g>
                    <g transform="translate(8 54.464000000000006)">
                        <g class="typst-group">
                            <g>
                                <g transform="translate(0 8.976)">
                                    <g class="typst-text" transform="scale(1, -1)"/>
                                </g>
                            </g>
                        </g>
                    </g>
                    <g transform="translate(13.280000000000001 54.464000000000006)">
                        <g class="typst-group">
                            <g>
                                <g transform="translate(0 8.976)">
                                    <g class="typst-text" transform="scale(1, -1)">
                                        <use xlink:href="#g40C668FB4E37D9F21E1980C2683B7C07" x="5.28" fill="#ffff00"/>
                                        <use xlink:href="#g69D562AAFC7AB90A48642CD56D172AEA" x="31.680000000000003" fill="#ffff00"/>
                                        <use xlink:href="#g45C544E5050795A0DB9B642A0F86EEF6" x="42.24" fill="#ffff00"/>
                                        <use xlink:href="#gEA462781DB655E9FC41D13FE877043C1" x="47.52" fill="#ffff00"/>
                                    </g>
                                </g>
                            </g>
                        </g>
                    </g>
                    <g transform="translate(66.08 54.464000000000006)">
                        <g class="typst-group">
                            <g/>
                        </g>
                    </g>
                    <g transform="translate(8 77.69600000000001)">
                        <g class="typst-group">
                            <g/>
                        </g>
                    </g>
                    <g transform="translate(8 77.69600000000001)">
                        <g class="typst-group">
                            <g/>
                        </g>
                    </g>
                    <g transform="translate(8 66.08000000000001)">
                        <g class="typst-group">
                            <g>
                                <g transform="translate(0 8.976)">
                                    <g class="typst-text" transform="scale(1, -1)"/>
                                </g>
                            </g>
                        </g>
                    </g>
                    <g transform="translate(29.12 66.08000000000001)">
                        <g class="typst-group">
                            <g>
                                <g transform="translate(0 8.976)">
                                    <g class="typst-text" transform="scale(1, -1)">
                                        <use xlink:href="#g69D562AAFC7AB90A48642CD56D172AEA" x="15.84" fill="#ffff00"/>
                                        <use xlink:href="#g9F62A776F256F459E0FDB0ABC6A60C79" x="21.12" fill="#ffff00"/>
                                        <use xlink:href="#g45C544E5050795A0DB9B642A0F86EEF6" x="26.400000000000002" fill="#ffff00"/>
                                        <use xlink:href="#gD45F75A0548D7919D1CC2C8CF00925DA" x="31.680000000000003" fill="#ffff00"/>
                                    </g>
                                </g>
                            </g>
                        </g>
                    </g>
                    <g transform="translate(66.08000000000001 66.08000000000001)">
                        <g class="typst-group">
                            <g/>
                        </g>
                    </g>
                    <g transform="translate(8 77.69600000000001)">
                        <g class="typst-group">
                            <g/>
                        </g>
                    </g>
                    <g transform="translate(8 89.31200000000001)">
                        <g class="typst-group">
                            <g/>
                        </g>
                    </g>
                </g>
            </g>
        </g>
    </g>
    <defs id="glyph">
        <symbol id="g45C544E5050795A0DB9B642A0F86EEF6" overflow="visible">
            <path d="M 0.528 -1.2144 L 0.528 -0.22 L 4.752 -0.22 L 4.752 -1.2144 L 0.528 -1.2144 Z "/>
        </symbol>
        <symbol id="g69D562AAFC7AB90A48642CD56D172AEA" overflow="visible">
            <path d="M 0.132 2.3936 L 0.132 3.4144 L 4.048 3.4144 L 4.048 2.3936 L 0.132 2.3936 Z M -9.328 2.3936 L -9.328 3.4144 L -5.412 3.4144 L -5.412 2.3936 L -9.328 2.3936 Z M -4.576 2.3936 L -4.576 3.4144 L -0.704 3.4144 L -0.704 2.3936 L -4.576 2.3936 Z "/>
        </symbol>
        <symbol id="g9F62A776F256F459E0FDB0ABC6A60C79" overflow="visible">
            <path d="M 4.268 -1.056 Q 2.9304 -0.748 2.2 0.154 Q 1.4696 1.056 1.4696 2.3848 L 1.4696 3.96 Q 1.4696 5.2799997 2.2 6.1776 Q 2.9304 7.0752 4.268 7.392 L 4.268 6.3008 Q 3.4847999 6.116 3.0316 5.4868 Q 2.5784 4.8576 2.5784 3.96 L 2.5784 2.3848 Q 2.5784 1.4872 3.0316 0.858 Q 3.4847999 0.2288 4.268 0.044 L 4.268 -1.056 Z "/>
        </symbol>
        <symbol id="gD45F75A0548D7919D1CC2C8CF00925DA" overflow="visible">
            <path d="M 1.012 -1.056 L 1.012 0.044 Q 1.7952 0.2288 2.2484 0.858 Q 2.7016 1.4872 2.7016 2.3848 L 2.7016 3.96 Q 2.7016 4.8576 2.2484 5.4868 Q 1.7952 6.116 1.012 6.3008 L 1.012 7.392 Q 2.3496 7.0752 3.08 6.1776 Q 3.8104 5.2799997 3.8104 3.96 L 3.8104 2.3848 Q 3.8104 1.056 3.08 0.154 Q 2.3496 -0.748 1.012 -1.056 Z "/>
        </symbol>
        <symbol id="gEA462781DB655E9FC41D13FE877043C1" overflow="visible">
            <path d="M 0.528 -0.968 L 3.608 7.304 L 4.752 7.304 L 1.6719999 -0.968 L 0.528 -0.968 Z "/>
        </symbol>
        <symbol id="g40C668FB4E37D9F21E1980C2683B7C07" overflow="visible">
            <path d="M 3.5992 -0.968 L 0.528 7.304 L 1.6719999 7.304 L 4.7432 -0.968 L 3.5992 -0.968 Z "/>
        </symbol>
        <symbol id="g9E2918126B06D8427DFD8C44236F351E" overflow="visible">
            <path d="M 2.0856 -0.968 L 2.0856 7.304 L 3.1944 7.304 L 3.1944 -0.968 L 2.0856 -0.968 Z "/>
        </symbol>
    </defs>
</svg>
